public/logo.svg

<svg width="24" height="29" viewBox="0 0 24 29" fill="none" xmlns="http://www.w3.org/2000/svg">
<path d="M5.75636 13.86C2.14233 13.86 0.0931449 12.2579 0 9.44489H2.64532C2.83161 11.047 3.74443 11.6804 5.64458 11.6804C7.02313 11.6804 8.23401 11.196 8.23401 9.96651C8.23401 8.66248 6.96724 8.40167 4.93668 7.93595C2.55217 7.39571 0.37258 6.76232 0.37258 3.9866C0.37258 1.35992 2.51491 0 5.47692 0C8.47619 0 10.4136 1.47169 10.6185 4.15426H8.02909C7.88006 2.81298 6.83684 2.14233 5.45829 2.14233C4.00523 2.14233 3.05515 2.75709 3.05515 3.70717C3.05515 4.78765 3.9866 5.10434 5.96128 5.53281C8.69974 6.12894 10.9352 6.78095 10.9352 9.64981C10.9352 12.351 8.75562 13.86 5.75636 13.86Z" fill="currentColor"/>
<path d="M11.2953 2.51491V0.242177H22.0069V2.51491H18.0017V13.5619H15.3005V2.51491H11.2953Z" fill="currentColor"/>
<path d="M0 28.344V15.0243H6.11031C8.68111 15.0243 10.395 16.5146 10.395 18.7314C10.395 20.2963 9.66844 21.4885 7.95458 21.9543V22.0101C9.18409 22.3641 9.81748 23.072 9.98514 24.6927C10.1714 26.5742 10.0969 28.0087 10.5626 28.2136V28.344H7.97321C7.63788 28.195 7.60063 26.7046 7.48885 25.2702C7.37708 23.8172 6.5574 22.9975 4.88079 22.9975H2.7012V28.344H0ZM2.7012 17.2039V20.911H5.57007C7.04176 20.911 7.76829 20.1472 7.76829 19.0854C7.76829 18.0049 7.07901 17.2039 5.64458 17.2039H2.7012Z" fill="currentColor"/>
<path d="M12.1343 28.344V15.0243H17.3318C20.8899 15.0243 23.1813 17.8931 23.1813 21.8239C23.1813 23.9848 22.4548 25.885 21.0576 27.0586C20.0703 27.8783 18.7849 28.344 17.1082 28.344H12.1343ZM14.8355 26.0154H16.922C19.4555 26.0154 20.4428 24.4692 20.4428 21.8239C20.4428 19.1785 19.2878 17.3343 16.9965 17.3343H14.8355V26.0154Z" fill="currentColor"/>
</svg>

<?xml version="1.0" encoding="UTF-8"?>
<svg id="Layer_1" xmlns="http://www.w3.org/2000/svg" version="1.1" viewBox="0 0 23.18 28.34">
  <!-- Generator: Adobe Illustrator 30.1.0, SVG Export Plug-In . SVG Version: 2.1.1 Build 136)  -->
  <path d="M5.76,13.86C2.14,13.86.09,12.26,0,9.44h2.65c.19,1.6,1.1,2.24,3,2.24,1.38,0,2.59-.48,2.59-1.71,0-1.3-1.27-1.56-3.3-2.03C2.55,7.4.37,6.76.37,3.99.37,1.36,2.51,0,5.48,0s4.94,1.47,5.14,4.15h-2.59c-.15-1.34-1.19-2.01-2.57-2.01-1.45,0-2.4.61-2.4,1.56,0,1.08.93,1.4,2.91,1.83,2.74.6,4.97,1.25,4.97,4.12,0,2.7-2.18,4.21-5.18,4.21Z"/>
  <path d="M11.3,2.51V.24h10.71v2.27h-4.01v11.05h-2.7V2.51h-4.01Z"/>
  <path d="M0,28.34v-13.32h6.11c2.57,0,4.28,1.49,4.28,3.71,0,1.56-.73,2.76-2.44,3.22v.06c1.23.35,1.86,1.06,2.03,2.68.19,1.88.11,3.32.58,3.52v.13h-2.59c-.34-.15-.37-1.64-.48-3.07-.11-1.45-.93-2.27-2.61-2.27h-2.18v5.35H0ZM2.7,17.2v3.71h2.87c1.47,0,2.2-.76,2.2-1.83s-.69-1.88-2.12-1.88h-2.94Z"/>
  <path d="M12.13,28.34v-13.32h5.2c3.56,0,5.85,2.87,5.85,6.8,0,2.16-.73,4.06-2.12,5.23-.99.82-2.27,1.29-3.95,1.29h-4.97ZM14.84,26.02h2.09c2.53,0,3.52-1.55,3.52-4.19s-1.16-4.49-3.45-4.49h-2.16v8.68Z"/>
</svg>
